media/img/author-noun-grape-mobile.svg

<svg width="265" height="277" viewBox="0 0 265 277" fill="none" xmlns="http://www.w3.org/2000/svg">
<path d="M206.545 58.8491C192.244 60.2498 177.451 69.5212 162.481 77.9359C162.669 84.252 162.533 90.8146 162.069 97.4308C169.938 94.56 178.911 97.5092 185.292 103.283C189.146 106.964 191.606 111.606 192.519 116.52C196.762 116.834 201.525 118.408 205.283 121.176C215.411 122.209 229.749 128.396 240.01 135.309C237.611 124.967 234.114 110.838 229.986 101.587C229.201 99.8004 231.355 97.5374 233.166 98.2416L243.305 101.996C240.567 93.1633 236.636 86.0503 230.311 81.2094C222.772 75.4381 212.042 72.0143 196.732 70.6413C194.733 70.4274 193.967 67.2396 195.645 66.1059L206.548 58.852L206.545 58.8491ZM150.461 33.6878C150.285 33.6105 150.158 33.5884 149.986 33.573C144.469 33.071 155.79 64.5708 152.535 97.8205L159.41 100.088C162.562 67.8777 155.896 36.0941 150.463 33.6853L150.461 33.6878ZM118.379 49.0435C116.51 47.9385 114.195 46.7672 111.886 45.7277L119.771 56.1591C120.961 57.7676 119.184 60.5144 117.229 60.0854C102.335 56.558 91.9553 57.0465 83.4332 60.9588C76.8103 63.9996 71.1671 69.9501 65.6371 77.5102L72.9204 74.8877C75.2241 75.2144 77.0081 75.8384 75.5194 78.8975C68.4737 86.4164 60.4029 98.8589 54.6961 107.891C64.273 105.086 73.7029 103.807 81.0448 103.476C83.6191 100.519 86.9218 98.1276 90.7967 96.6062C96.4568 94.383 102.601 94.2893 108.248 96.3778C115.931 84.1341 130.6 80.5764 142.616 87.8694C145.802 89.8571 148.462 92.4683 150.362 95.4575C150.504 90.9467 150.42 86.4154 150.223 81.9578C142.221 70.5407 131.833 57.0397 118.379 49.0445L118.379 49.0435ZM178.856 104.691C171.488 100.048 162.805 100.183 154.122 107.542C154.912 112.903 152.409 119.767 148.634 124.514C149.272 128.866 151.373 132.891 154.545 135.919C162.451 143.468 174.901 143.099 182.493 135.074C190.086 127.048 189.875 114.55 181.971 107.002C180.975 106.15 179.91 105.355 178.858 104.692L178.856 104.691ZM200.781 124.158C198.444 122.793 195.778 121.847 192.931 121.556C192.838 127.514 190.621 133.463 186.295 138.179C189.349 145.648 188.45 153.804 184.577 160.352C186.315 160.89 188.16 161.112 189.993 161.16C200.948 161.443 210.096 152.898 210.492 141.885C210.764 134.313 206.826 127.683 200.781 124.158L200.781 124.158ZM140.021 92.0363C130.752 86.2536 118.612 89.2632 112.761 98.6405C106.91 108.018 109.584 120.178 118.854 125.962C128.123 131.745 140.287 128.841 146.137 119.464C151.988 110.087 149.289 97.8191 140.021 92.0363ZM182.262 141.727C172.797 148.429 159.719 147.787 151.097 139.555C149.87 138.384 148.807 137.083 147.858 135.696C143.388 141.431 142.334 149.192 145.251 155.934C149.603 165.998 161.234 170.508 171.294 166.027C180.69 161.841 185.248 151.297 182.265 141.727L182.262 141.727ZM106.074 100.899C101.667 99.3866 96.8646 99.51 92.4746 101.234C82.2289 105.258 77.086 116.697 80.9816 126.954C84.5298 136.292 94.3129 141.279 103.767 139.057C101.539 132.184 102.414 124.576 106.4 118.191C104.31 112.765 104.072 106.597 106.075 100.9L106.074 100.899ZM144.489 128.54C136.497 134.766 125.253 135.741 116.26 130.13C113.378 128.332 110.998 126.036 109.16 123.404C106.396 129.837 107.133 137.406 111.334 143.135C117.734 151.862 129.86 153.68 138.684 147.337C138.868 141.383 141.125 135.539 145.327 130.994C145.001 130.189 144.729 129.38 144.488 128.541L144.489 128.54ZM196.966 165.324C192.011 166.658 186.685 166.313 181.529 164.512C180.224 165.947 178.761 167.256 177.116 168.373C181.116 171.554 183.939 175.828 185.348 180.585C191.597 177.787 195.941 172.033 196.965 165.324L196.966 165.324ZM172.198 171.002C165.641 173.565 158.557 173.092 152.615 170.27C151.606 177.429 147.578 183.623 141.846 187.529C141.598 195.322 145.806 202.428 152.754 205.82C162.574 210.612 174.535 206.459 179.406 196.54C183.973 187.24 180.713 176.287 172.199 171.004L172.198 171.002ZM139.15 152.864C131.394 157.199 122.053 156.95 114.679 152.663C110.656 156.499 108.359 161.838 108.402 167.397C108.484 178.411 117.412 187.128 128.371 186.93C139.087 186.736 147.592 178.003 147.892 167.323C143.791 164.018 140.218 158.612 139.15 152.865L139.15 152.864ZM105.78 143.712C97.3094 146.043 88.4745 143.613 82.3859 137.844C80.8078 140.246 79.7553 142.988 79.3065 145.845C77.5948 156.744 84.918 166.805 95.7448 168.411C98.0956 167.019 100.719 166.016 103.513 165.449C103.95 159.561 106.45 153.987 110.581 149.738C108.916 148.009 107.011 146.021 105.78 143.71L105.78 143.712ZM136.928 190.156C135.582 190.688 134.215 191.128 132.77 191.419C132.072 200.679 126.248 208.639 118.057 212.374C119.737 220.32 126.003 226.422 133.982 227.73C144.428 229.442 154.373 222.616 156.708 212.328C154.635 211.929 152.594 211.238 150.613 210.271C142.788 206.452 137.632 198.761 136.927 190.156L136.928 190.156ZM103.688 170.428C94.3358 172.677 87.8179 181.359 88.3437 191.08C88.9357 202.074 98.2911 210.43 109.236 209.719C119.048 209.082 126.752 201.417 127.815 191.912C115.438 191.854 105.225 182.519 103.687 170.428L103.688 170.428ZM113.369 214.044C112.233 214.267 110.875 214.585 109.516 214.672C102.681 215.115 96.2691 212.674 91.55 208.425C88.8205 210.951 86.7654 214.274 85.7573 217.857C82.7642 228.487 88.7948 239.328 99.3397 242.226C109.681 245.067 120.48 239.113 123.711 228.86C118.584 225.484 114.83 220.264 113.368 214.046L113.369 214.044Z" fill="url(#paint0_linear_689_5673)" fill-opacity="0.15"/>
<defs>
<linearGradient id="paint0_linear_689_5673" x1="189.235" y1="48.0491" x2="76.407" y2="228.891" gradientUnits="userSpaceOnUse">
<stop stop-color="#3F3F3F"/>
<stop offset="1"/>
</linearGradient>
</defs>
</svg>

<svg width="265" height="277" viewBox="0 0 265 277" fill="none" xmlns="http://www.w3.org/2000/svg"><path d="M206.545 58.85c-14.301 1.4-29.094 10.671-44.064 19.086.188 6.316.052 12.879-.412 19.495 7.869-2.871 16.842.078 23.223 5.852 3.854 3.681 6.314 8.323 7.227 13.237 4.243.314 9.006 1.888 12.764 4.656 10.128 1.033 24.466 7.22 34.727 14.133-2.399-10.342-5.896-24.471-10.024-33.722-.785-1.787 1.369-4.05 3.18-3.345l10.139 3.754c-2.738-8.833-6.669-15.946-12.994-20.787-7.539-5.77-18.269-9.195-33.579-10.568-1.999-.214-2.765-3.401-1.087-4.535l10.903-7.254-.003-.003zm-56.084-25.162a1.354 1.354 0 00-.475-.115c-5.517-.502 5.804 30.998 2.549 64.248l6.875 2.267c3.152-32.21-3.514-63.994-8.947-66.403l-.002.003zm-32.082 15.355c-1.869-1.105-4.184-2.276-6.493-3.315l7.885 10.431c1.19 1.609-.587 4.355-2.542 3.926-14.894-3.527-25.274-3.038-33.796.874-6.623 3.04-12.266 8.991-17.796 16.551l7.283-2.622c2.304.326 4.088.95 2.6 4.01-7.046 7.518-15.117 19.96-20.824 28.993 9.577-2.805 19.007-4.084 26.349-4.415a25.025 25.025 0 019.752-6.87c5.66-2.223 11.804-2.317 17.451-.228 7.683-12.244 22.352-15.802 34.368-8.509 3.186 1.988 5.846 4.6 7.746 7.588.142-4.51.058-9.042-.139-13.5-8.002-11.416-18.39-24.917-31.844-32.912v-.002zm60.477 55.648c-7.368-4.643-16.051-4.508-24.734 2.851.79 5.361-1.713 12.225-5.488 16.972a19.775 19.775 0 005.911 11.405c7.906 7.549 20.356 7.18 27.948-.845 7.593-8.026 7.382-20.524-.522-28.072a27.084 27.084 0 00-3.113-2.31l-.002-.001zm21.925 19.467c-2.337-1.365-5.003-2.311-7.85-2.602a25.132 25.132 0 01-6.636 16.623c3.054 7.469 2.155 15.625-1.718 22.173 1.738.538 3.583.76 5.416.808 10.955.283 20.103-8.262 20.499-19.275.272-7.572-3.666-14.202-9.711-17.727zm-60.76-32.122c-9.269-5.782-21.409-2.773-27.26 6.605-5.851 9.377-3.177 21.537 6.093 27.321 9.269 5.783 21.433 2.879 27.283-6.498 5.851-9.377 3.152-21.645-6.116-27.428zm42.241 49.691c-9.465 6.702-22.543 6.06-31.165-2.172-1.227-1.171-2.29-2.472-3.239-3.859-4.47 5.735-5.524 13.496-2.607 20.238 4.352 10.064 15.983 14.574 26.043 10.093 9.396-4.186 13.954-14.73 10.971-24.3h-.003zm-76.188-40.828c-4.407-1.512-9.21-1.389-13.6.335-10.245 4.024-15.388 15.463-11.492 25.72 3.548 9.338 13.33 14.325 22.785 12.103-2.228-6.873-1.353-14.481 2.633-20.866-2.09-5.426-2.328-11.594-.325-17.291l-.001-.001zm38.415 27.641c-7.992 6.226-19.236 7.201-28.229 1.59a24.334 24.334 0 01-7.1-6.726c-2.764 6.433-2.027 14.002 2.174 19.731 6.4 8.727 18.526 10.545 27.35 4.202.184-5.954 2.441-11.798 6.643-16.343a24.521 24.521 0 01-.839-2.453l.001-.001zm52.477 36.784c-4.955 1.334-10.281.989-15.437-.812a24.828 24.828 0 01-4.413 3.861c4 3.181 6.823 7.455 8.232 12.212a20.012 20.012 0 0011.617-15.261h.001zm-24.768 5.678c-6.557 2.563-13.641 2.09-19.583-.732-1.009 7.159-5.037 13.353-10.769 17.259-.248 7.793 3.96 14.899 10.908 18.291 9.82 4.792 21.781.639 26.652-9.28 4.567-9.3 1.307-20.253-7.207-25.536l-.001-.002zm-33.048-18.138c-7.756 4.335-17.097 4.086-24.471-.201-4.023 3.836-6.32 9.175-6.277 14.734.082 11.014 9.01 19.731 19.969 19.533 10.716-.194 19.221-8.927 19.521-19.607-4.101-3.305-7.674-8.711-8.742-14.458v-.001zm-33.37-9.152c-8.47 2.331-17.305-.099-23.394-5.868a20.353 20.353 0 00-3.08 8.001c-1.711 10.899 5.612 20.96 16.439 22.566a24.978 24.978 0 017.768-2.962 25.238 25.238 0 017.068-15.711c-1.665-1.729-3.57-3.717-4.801-6.028v.002zm31.148 46.444c-1.346.532-2.713.972-4.158 1.263-.698 9.26-6.522 17.22-14.713 20.955 1.68 7.946 7.946 14.048 15.925 15.356 10.446 1.712 20.391-5.114 22.726-15.402a24.405 24.405 0 01-6.095-2.057c-7.825-3.819-12.981-11.51-13.686-20.115h.001zm-33.24-19.728c-9.352 2.249-15.87 10.931-15.344 20.652.592 10.994 9.947 19.35 20.892 18.639 9.812-.637 17.516-8.302 18.579-17.807-12.377-.058-22.59-9.393-24.128-21.484h.001zm9.681 43.616c-1.136.223-2.494.541-3.853.628a24.478 24.478 0 01-17.966-6.247c-2.73 2.526-4.785 5.849-5.793 9.432-2.993 10.63 3.038 21.471 13.583 24.369 10.341 2.841 21.14-3.113 24.371-13.366a24.358 24.358 0 01-10.343-14.814l.001-.002z" fill="url(#paint0_linear_689_5673)" fill-opacity=".15"/><defs><linearGradient id="paint0_linear_689_5673" x1="189.235" y1="48.049" x2="76.407" y2="228.891" gradientUnits="userSpaceOnUse"><stop stop-color="#3F3F3F"/><stop offset="1"/></linearGradient></defs></svg>
